X:267
T:Polly Put the Kettle On
R:hp 24
C:Trad. ed. OSB
S:Gamesters, Pickpockets and Harlots
N:George Baldwin
B:Coleford Jig, Menteith & Burgess, 2004 Z:PJHeadford 2011
M:4/4
L:1/8
Q:2/4=75
K:G
|:gfed efge|dcBA Bcd2|gfed efgg|fgaf g4:|] :gabg afd2|efge dBG2|ABcA
|dBGB|cAFA G4:|] :BcdB cde2|ABcA Bcd2|G3B cBAd|BGAF G2G2:|]

